X: 28141
T: Mrs Fallon
R: reel
M: 4/4
K: Gmajor
dBGB dBgd|eAAB dced|B2 AB {A}GEED|EGGA {A}B2 {B}A2|
dBdg dBdg|a2 ag/a/ b2 ba|{a}ge e2 {e}dBdd|
{e}dB dB/d/ e2 e2||g2 g/a/b g2 g/a/b|aee/f/g agga|
geaf bgaf|gGAB gGAB|{A}GEEA GEGB|
A2 AB ABAB|dBde dBge|dB d/B/A/G/ g2 g2||

